X: 8099
T: Contentment Is Wealth
R: jig
M: 6/8
K: Edorian
|:F|GFG Eed|BAB E2 G|FEF DdB|AFD Def|
gfe edB|BAF d2 B|AFD DFA|GEE E2:|
|:f|gbe gbe|gbb bag|fad fad|faa afd|
gfe edB|BAF d2 B|AFD DFA|GEE E2:|

